X:2702
T:Davy Jones Theme 
O:Kevin Fraser
Q:3/4=72
K:C
M:1/4
L:1/4
%%MIDI gracedivider 4
%%MIDI gchord
%%MIDI beatstring 
|{g}A2 B |{g}c2 d |{g}e2 f |{g}e2 A |
w:      
w:        
|{g}e2 f |{gf}g2 a |e2 d |{gef}e3 |
w:      
w:        
|{g}f2 g |{a}e2 c |{Gdc}d2 e |{gcd}c2 {e}A |
w:      
w:        
|{g}B2 {e}G |f2 B |{g}A3  |{GAG}A3 |
w:      
w:        
